X:192
T:The Bag of Praties
Z:Jack Campin, http://www.campin.me.uk/
F:Jack Campin's Nine-Note Tunebook
% last edit 03-02-2013
S:R.M. Levey, The First Collection of the Dance Music of Ireland (1858)
M:C
L:1/8
Q:1/4=148
N:original key
K:DMix
dddd    d2 AB|cccc B2A2|dddd   (dA)AF|AFEF D2D2:|
B2(AF) (AF)ED|B2AF A2A2|B2(AF) (AF)ED|EDEF D2D2:|

